X:15670
T:Soft Horse Reel, The
C:Phil Cunningham
R:reel
S:Session Galway 1992
Z:id:hn-reel-434
M:C|
K:D
D2AG FGAF|E2ed cABc|dBBA BdAF|GFED CA,B,C|
D2AG FGAF|E2ed cABc|dBBA BdAF|GFEG FDD2:|
|:BF~F2 Bcdc|BG~G2 BcdB|cA~A2 ~e3c|Aced cAGE|
D2AG FGAF|E2ed cABc|dBBA BdAF|GFEG FDD2:|
